X: 392
P: Longways for as many as will
M: 6/8
L:1/8
K: D
V: 1
|: A | d2e f/g/a/g/f/e/ | d2A d2g | f/g/a/g/f/a/ gec | d2g f/g/a/g/f/e/ | d2c B2e | e>fd c2 :|
V: 2 clef=bass middle=d
   z | d3 z2z | d3  g3  | e3 c3 | B2c d3-| d3 G3 | A3 a2 :|
|: z | f2e d3 | f2a f2e | d3 e3 | f2e d3 | F3 G3 | A3 a2 :|

